src/assets/Logomark.svg

<svg width="38" height="38" viewBox="0 0 38 38" fill="none" xmlns="http://www.w3.org/2000/svg">
<g filter="url(#filter0_dd_3429_193)">
<g clip-path="url(#clip0_3429_193)">
<rect x="3" y="2" width="32" height="32" rx="8" fill="white"/>
<rect x="3" y="2" width="32" height="32" rx="8" fill="url(#paint0_linear_3429_193)"/>
<path fill-rule="evenodd" clip-rule="evenodd" d="M19 4.03861C11.2895 4.03861 5.03885 10.2892 5.03885 17.9998C5.03885 25.7103 11.2895 31.9609 19 31.9609C26.7106 31.9609 32.9612 25.7103 32.9612 17.9998C32.9612 10.2892 26.7106 4.03861 19 4.03861ZM4.96118 17.9998C4.96118 10.2463 11.2466 3.96094 19 3.96094C26.7535 3.96094 33.0389 10.2463 33.0389 17.9998C33.0389 25.7532 26.7535 32.0386 19 32.0386C11.2466 32.0386 4.96118 25.7532 4.96118 17.9998Z" fill="#D0D5DD"/>
<path fill-rule="evenodd" clip-rule="evenodd" d="M19 14.0777C16.8338 14.0777 15.0777 15.8338 15.0777 18C15.0777 20.1662 16.8338 21.9223 19 21.9223C21.1662 21.9223 22.9223 20.1662 22.9223 18C22.9223 15.8338 21.1662 14.0777 19 14.0777ZM15 18C15 15.7909 16.7909 14 19 14C21.2091 14 23 15.7909 23 18C23 20.2091 21.2091 22 19 22C16.7909 22 15 20.2091 15 18Z" fill="#D0D5DD"/>
<path fill-rule="evenodd" clip-rule="evenodd" d="M19 15.3199C17.5201 15.3199 16.3204 16.5196 16.3204 17.9995C16.3204 19.4794 17.5201 20.6791 19 20.6791C20.4799 20.6791 21.6796 19.4794 21.6796 17.9995C21.6796 16.5196 20.4799 15.3199 19 15.3199ZM16.2427 17.9995C16.2427 16.4767 17.4772 15.2422 19 15.2422C20.5228 15.2422 21.7573 16.4767 21.7573 17.9995C21.7573 19.5223 20.5228 20.7568 19 20.7568C17.4772 20.7568 16.2427 19.5223 16.2427 17.9995Z" fill="#D0D5DD"/>
<path d="M18.9612 2H19.0389V34H18.9612V2Z" fill="#D0D5DD"/>
<path d="M35 17.9609L35 18.0386L3 18.0386L3 17.9609L35 17.9609Z" fill="#D0D5DD"/>
<path d="M29.6019 2H29.6796V34H29.6019V2Z" fill="#D0D5DD"/>
<path d="M13.6407 2H13.7184V34H13.6407V2Z" fill="#D0D5DD"/>
<path d="M24.2816 2H24.3592V34H24.2816V2Z" fill="#D0D5DD"/>
<path d="M8.32037 2H8.39804V34H8.32037V2Z" fill="#D0D5DD"/>
<path d="M35 28.6016L35 28.6792L3 28.6792L3 28.6016L35 28.6016Z" fill="#D0D5DD"/>
<path d="M35 12.6406L35 12.7183L3 12.7183L3 12.6406L35 12.6406Z" fill="#D0D5DD"/>
<path d="M35 23.2812L35 23.3589L3 23.3589L3 23.2812L35 23.2812Z" fill="#D0D5DD"/>
<path d="M35 7.32031L35 7.39798L3 7.39798L3 7.32031L35 7.32031Z" fill="#D0D5DD"/>
<g filter="url(#filter1_dd_3429_193)">
<circle cx="19" cy="18" r="8" fill="url(#paint1_linear_3429_193)"/>
</g>
<g filter="url(#filter2_b_3429_193)">
<path d="M3 18H35V21.2C35 25.6804 35 27.9206 34.1281 29.6319C33.3611 31.1372 32.1372 32.3611 30.6319 33.1281C28.9206 34 26.6804 34 22.2 34H15.8C11.3196 34 9.07937 34 7.36808 33.1281C5.86278 32.3611 4.63893 31.1372 3.87195 29.6319C3 27.9206 3 25.6804 3 21.2V18Z" fill="white" fill-opacity="0.2"/>
</g>
</g>
<rect x="3.1" y="2.1" width="31.8" height="31.8" rx="7.9" stroke="#D0D5DD" stroke-width="0.2"/>
</g>
<defs>
<filter id="filter0_dd_3429_193" x="0" y="0" width="38" height="38" filterUnits="userSpaceOnUse" color-interpolation-filters="sRGB">
<feFlood flood-opacity="0" result="BackgroundImageFix"/>
<feColorMatrix in="SourceAlpha" type="matrix" values="0 0 0 0 0 0 0 0 0 0 0 0 0 0 0 0 0 0 127 0" result="hardAlpha"/>
<feOffset dy="1"/>
<feGaussianBlur stdDeviation="1"/>
<feColorMatrix type="matrix" values="0 0 0 0 0.0627451 0 0 0 0 0.0941176 0 0 0 0 0.156863 0 0 0 0.06 0"/>
<feBlend mode="normal" in2="BackgroundImageFix" result="effect1_dropShadow_3429_193"/>
<feColorMatrix in="SourceAlpha" type="matrix" values="0 0 0 0 0 0 0 0 0 0 0 0 0 0 0 0 0 0 127 0" result="hardAlpha"/>
<feOffset dy="1"/>
<feGaussianBlur stdDeviation="1.5"/>
<feColorMatrix type="matrix" values="0 0 0 0 0.0627451 0 0 0 0 0.0941176 0 0 0 0 0.156863 0 0 0 0.1 0"/>
<feBlend mode="normal" in2="effect1_dropShadow_3429_193" result="effect2_dropShadow_3429_193"/>
<feBlend mode="normal" in="SourceGraphic" in2="effect2_dropShadow_3429_193" result="shape"/>
</filter>
<filter id="filter1_dd_3429_193" x="8" y="8" width="22" height="22" filterUnits="userSpaceOnUse" color-interpolation-filters="sRGB">
<feFlood flood-opacity="0" result="BackgroundImageFix"/>
<feColorMatrix in="SourceAlpha" type="matrix" values="0 0 0 0 0 0 0 0 0 0 0 0 0 0 0 0 0 0 127 0" result="hardAlpha"/>
<feOffset dy="1"/>
<feGaussianBlur stdDeviation="1"/>
<feColorMatrix type="matrix" values="0 0 0 0 0.0627451 0 0 0 0 0.0941176 0 0 0 0 0.156863 0 0 0 0.06 0"/>
<feBlend mode="normal" in2="BackgroundImageFix" result="effect1_dropShadow_3429_193"/>
<feColorMatrix in="SourceAlpha" type="matrix" values="0 0 0 0 0 0 0 0 0 0 0 0 0 0 0 0 0 0 127 0" result="hardAlpha"/>
<feOffset dy="1"/>
<feGaussianBlur stdDeviation="1.5"/>
<feColorMatrix type="matrix" values="0 0 0 0 0.0627451 0 0 0 0 0.0941176 0 0 0 0 0.156863 0 0 0 0.1 0"/>
<feBlend mode="normal" in2="effect1_dropShadow_3429_193" result="effect2_dropShadow_3429_193"/>
<feBlend mode="normal" in="SourceGraphic" in2="effect2_dropShadow_3429_193" result="shape"/>
</filter>
<filter id="filter2_b_3429_193" x="-2" y="13" width="42" height="26" filterUnits="userSpaceOnUse" color-interpolation-filters="sRGB">
<feFlood flood-opacity="0" result="BackgroundImageFix"/>
<feGaussianBlur in="BackgroundImageFix" stdDeviation="2.5"/>
<feComposite in2="SourceAlpha" operator="in" result="effect1_backgroundBlur_3429_193"/>
<feBlend mode="normal" in="SourceGraphic" in2="effect1_backgroundBlur_3429_193" result="shape"/>
</filter>
<linearGradient id="paint0_linear_3429_193" x1="19" y1="2" x2="19" y2="34" gradientUnits="userSpaceOnUse">
<stop stop-color="white"/>
<stop offset="1" stop-color="#D0D5DD"/>
</linearGradient>
<linearGradient id="paint1_linear_3429_193" x1="15" y1="26" x2="23" y2="10" gradientUnits="userSpaceOnUse">
<stop stop-color="#53389E"/>
<stop offset="1" stop-color="#6941C6"/>
</linearGradient>
<clipPath id="clip0_3429_193">
<rect x="3" y="2" width="32" height="32" rx="8" fill="white"/>
</clipPath>
</defs>
</svg>

<svg xmlns="http://www.w3.org/2000/svg" width="38" height="38" fill="none"><g filter="url(#a)"><g clip-path="url(#b)"><rect width="32" height="32" x="3" y="2" fill="#fff" rx="8"/><rect width="32" height="32" x="3" y="2" fill="url(#c)" rx="8"/><path fill="#D0D5DD" fill-rule="evenodd" d="M19 4.039c-7.71 0-13.961 6.25-13.961 13.96S11.289 31.962 19 31.962c7.71 0 13.961-6.25 13.961-13.961 0-7.71-6.25-13.961-13.961-13.961M4.961 17.999c0-7.753 6.286-14.038 14.039-14.038S33.039 10.246 33.039 18 26.753 32.039 19 32.039 4.961 25.753 4.961 17.999" clip-rule="evenodd"/><path fill="#D0D5DD" fill-rule="evenodd" d="M19 14.078a3.922 3.922 0 1 0 0 7.844 3.922 3.922 0 0 0 0-7.844M15 18a4 4 0 1 1 8 0 4 4 0 0 1-8 0" clip-rule="evenodd"/><path fill="#D0D5DD" fill-rule="evenodd" d="M19 15.32a2.68 2.68 0 1 0 0 5.36 2.68 2.68 0 0 0 0-5.36M16.243 18a2.757 2.757 0 1 1 5.514 0 2.757 2.757 0 0 1-5.514 0" clip-rule="evenodd"/><path fill="#D0D5DD" d="M18.961 2h.078v32h-.078z"/><path fill="#D0D5DD" d="M35 17.96v.079H3v-.078z"/><path fill="#D0D5DD" d="M29.602 2h.078v32h-.078zM13.64 2h.078v32h-.077zM24.282 2h.077v32h-.077zM8.32 2h.078v32H8.32z"/><path fill="#D0D5DD" d="M35 28.602v.077H3v-.077zM35 12.64v.078H3v-.077zM35 23.281v.078H3v-.078zM35 7.32v.078H3V7.32z"/><g filter="url(#d)"><circle cx="19" cy="18" r="8" fill="url(#e)"/></g><g filter="url(#f)"><path fill="#fff" fill-opacity=".2" d="M3 18h32v3.2c0 4.48 0 6.72-.872 8.432a8 8 0 0 1-3.496 3.496C28.92 34 26.68 34 22.2 34h-6.4c-4.48 0-6.72 0-8.432-.872a8 8 0 0 1-3.496-3.496C3 27.92 3 25.68 3 21.2z"/></g></g><rect width="31.8" height="31.8" x="3.1" y="2.1" stroke="#D0D5DD" stroke-width=".2" rx="7.9"/></g><defs><filter id="a" width="38" height="38" x="0" y="0" color-interpolation-filters="sRGB" filterUnits="userSpaceOnUse"><feFlood flood-opacity="0" result="BackgroundImageFix"/><feColorMatrix in="SourceAlpha" result="hardAlpha" values="0 0 0 0 0 0 0 0 0 0 0 0 0 0 0 0 0 0 127 0"/><feOffset dy="1"/><feGaussianBlur stdDeviation="1"/><feColorMatrix values="0 0 0 0 0.0627451 0 0 0 0 0.0941176 0 0 0 0 0.156863 0 0 0 0.06 0"/><feBlend in2="BackgroundImageFix" result="effect1_dropShadow_3429_193"/><feColorMatrix in="SourceAlpha" result="hardAlpha" values="0 0 0 0 0 0 0 0 0 0 0 0 0 0 0 0 0 0 127 0"/><feOffset dy="1"/><feGaussianBlur stdDeviation="1.5"/><feColorMatrix values="0 0 0 0 0.0627451 0 0 0 0 0.0941176 0 0 0 0 0.156863 0 0 0 0.1 0"/><feBlend in2="effect1_dropShadow_3429_193" result="effect2_dropShadow_3429_193"/><feBlend in="SourceGraphic" in2="effect2_dropShadow_3429_193" result="shape"/></filter><filter id="d" width="22" height="22" x="8" y="8" color-interpolation-filters="sRGB" filterUnits="userSpaceOnUse"><feFlood flood-opacity="0" result="BackgroundImageFix"/><feColorMatrix in="SourceAlpha" result="hardAlpha" values="0 0 0 0 0 0 0 0 0 0 0 0 0 0 0 0 0 0 127 0"/><feOffset dy="1"/><feGaussianBlur stdDeviation="1"/><feColorMatrix values="0 0 0 0 0.0627451 0 0 0 0 0.0941176 0 0 0 0 0.156863 0 0 0 0.06 0"/><feBlend in2="BackgroundImageFix" result="effect1_dropShadow_3429_193"/><feColorMatrix in="SourceAlpha" result="hardAlpha" values="0 0 0 0 0 0 0 0 0 0 0 0 0 0 0 0 0 0 127 0"/><feOffset dy="1"/><feGaussianBlur stdDeviation="1.5"/><feColorMatrix values="0 0 0 0 0.0627451 0 0 0 0 0.0941176 0 0 0 0 0.156863 0 0 0 0.1 0"/><feBlend in2="effect1_dropShadow_3429_193" result="effect2_dropShadow_3429_193"/><feBlend in="SourceGraphic" in2="effect2_dropShadow_3429_193" result="shape"/></filter><filter id="f" width="42" height="26" x="-2" y="13" color-interpolation-filters="sRGB" filterUnits="userSpaceOnUse"><feFlood flood-opacity="0" result="BackgroundImageFix"/><feGaussianBlur in="BackgroundImageFix" stdDeviation="2.5"/><feComposite in2="SourceAlpha" operator="in" result="effect1_backgroundBlur_3429_193"/><feBlend in="SourceGraphic" in2="effect1_backgroundBlur_3429_193" result="shape"/></filter><linearGradient id="c" x1="19" x2="19" y1="2" y2="34" gradientUnits="userSpaceOnUse"><stop stop-color="#fff"/><stop offset="1" stop-color="#D0D5DD"/></linearGradient><linearGradient id="e" x1="15" x2="23" y1="26" y2="10" gradientUnits="userSpaceOnUse"><stop stop-color="#53389E"/><stop offset="1" stop-color="#6941C6"/></linearGradient><clipPath id="b"><rect width="32" height="32" x="3" y="2" fill="#fff" rx="8"/></clipPath></defs></svg>
